X:1
T: Lady Hamilton of Dalrymple
C:
R:Reel
Q: 232
K:Em
M:4/4
L:1/8
B|G2 E2 E2 D2|B,2 E2 E2 G2|F2 D2 A2 F2|B2 D2 F2 B2|G2 E2 E2 D2|B,2 E2 E2 F2|G2 F2 G2 A2|B2 e2 e2 f2|
g2 e2 f2 ^d2|e2 B2 d2 e2|B2 G2 d2 G2|F2 D2 F2 A2|G2 E2 E2 D2|B,2 E2 E2 F2|GF GA BA GF|G2 E2 E2 G2|
E2 e2 e4|B2 e2 G2 e2|D2 d2 d4|A2 d2 F2 D2|E2 e2 e2 d2|B2 d2 e2 f2|g2 fe ^d2 ef|B2 e2 e2 B2|
g2 e2 f2 ^d2|e2 B2 d2 G2|c2 A2 B2 E2|^D2 B2 B,2 A2|G2 E2 E2 D2|B,2 E2 E2 F2|GF GA BA GF|G2 E2 E2||
